outputs/icons/maps/flight_round.svg

<svg xmlns="http://www.w3.org/2000/svg" width="1200" height="1200" fill="none"><g clip-path="url(#a)"><path fill="#000" d="M1050 729c0-18-9.5-34.5-24.5-44.5L650 450V175c0-41.5-33.5-75-75-75s-75 33.5-75 75v275L124.5 684.5C109.5 694 100 711 100 729c0 35 34 60.5 68 50l332-104v275l-90 67.5c-6.5 4.5-10 12-10 20v29.5c0 16.5 16 28.5 32 24l143-41 143 41c16 4.5 32-7.5 32-24v-29.5c0-8-3.5-15.5-10-20L650 950V675l332 104c34 10.5 68-15 68-50"/></g><defs><clipPath id="a"><path fill="#fff" d="M0 0h1200v1200H0z"/></clipPath></defs></svg>

<svg width="1200" height="1200" viewBox="0 0 1200 1200" fill="none" xmlns="http://www.w3.org/2000/svg"><g clip-path="url(#clip0_238_1725)"><path d="M1050 729C1050 711 1040.5 694.5 1025.5 684.5L650 450V175C650 133.5 616.5 100 575 100C533.5 100 500 133.5 500 175V450L124.5 684.5C109.5 694 100 711 100 729C100 764 134 789.5 168 779L500 675V950L410 1017.5C403.5 1022 400 1029.5 400 1037.5V1067C400 1083.5 416 1095.5 432 1091L575 1050L718 1091C734 1095.5 750 1083.5 750 1067V1037.5C750 1029.5 746.5 1022 740 1017.5L650 950V675L982 779C1016 789.5 1050 764 1050 729Z" fill="#1D1E23"/></g><defs><clipPath id="clip0_238_1725"><path width="24" fill="white" d="M0 0H1200V1200H0V0z"/></clipPath></defs></svg>
